X: 39571
T: Teddy O'Neill's
R: jig
M: 6/8
K: Dmajor
f2 f fef|gBe dcB|Add dcd|fed eAd|
f2 f fef|gBe dcB|Adf agf|1 eBc dAd:|2 eBc dcd||
e2e edc|def gec|Add dcd|fed eAd|
f2 f fef|gBe dcB|Adf agf|1 eBc dcd:|2 eBc dAd||

